!!!OTL: ALLE DIE DAS RINGLEIN LIEBEN
!!!ARE: Europa, Mitteleuropa, Deutschland, Berlin; Dessau
!!!SCT: K2603
!!!YEM: Copyright 1995, estate of Helmut Schaffrath.
**kern
*ICvox
*Ivox
*M2/4
*k[f#]
*G:
=1
{8dd
8dd
8dd
8cc
=2
8b
8b
8b
8g}
=3
{8a
8a
8b
8b
=4
16dd
16cc
16b
16a
8g
8r}
=5
{8dd
8dd
8dd
8b
=6
8b
8b
8b
8g}
=7
{8a
8a
8b
8b
=8
16dd
16cc
16b
16a
8g
8r}
==
!!!AGN: Kinder - Lied, Pfaender - Spiel
!!!ONB: ESAC (Essen Associative Code) Database: KINDER
!!!AMT: simple duple
!!!AIN: vox
!!!EED: Helmut Schaffrath
!!!EEV: 1.0
*-
